source/images/supported_brands/python.svg

<svg height="153.36" width="518.453" xmlns="http://www.w3.org/2000/svg" xmlns:xlink="http://www.w3.org/1999/xlink"><linearGradient id="a" gradientTransform="matrix(.562541 0 0 .567972 -9.399749 -5.305317)" gradientUnits="userSpaceOnUse" x1="150.961" x2="112.031" y1="192.352" y2="137.273"><stop offset="0" stop-color="#ffd43b"/><stop offset="1" stop-color="#ffe873"/></linearGradient><linearGradient id="b" gradientTransform="matrix(.562541 0 0 .567972 -9.399749 -5.305317)" gradientUnits="userSpaceOnUse" x1="26.649" x2="135.665" y1="20.604" y2="114.398"><stop offset="0" stop-color="#5a9fd4"/><stop offset="1" stop-color="#306998"/></linearGradient><radialGradient id="c" cx="61.519" cy="132.286" gradientTransform="matrix(.00000002 -.296405 1.43676 .00000047 -128.544 150.5202)" gradientUnits="userSpaceOnUse" r="29.037"><stop offset="0" stop-color="#b8b8b8" stop-opacity=".498039"/><stop offset="1" stop-color="#7f7f7f" stop-opacity="0"/></radialGradient><g fill="#646464"><path d="m184.61344 61.929363c0-14.56215-4.15226-22.03817-12.45678-22.44755-3.30427-.15595-6.53055.37039-9.66912 1.58878-2.505.89673-4.19124 1.78372-5.07823 2.68045v34.75812c5.31216 3.33351 10.02976 4.88329 14.14303 4.63962 8.70415-.57508 13.0611-7.64172 13.0611-21.21942zm10.24419.60432c0 7.39804-1.73498 13.53871-5.22444 18.422-3.88909 5.5266-9.27923 8.37275-16.17042 8.52871-5.1952.1657-10.54635-1.46207-16.05346-4.87355v31.590317l-8.90884-3.17755v-70.120567c1.46206-1.79346 3.34325-3.3335 5.62407-4.63961 5.30242-3.08983 11.74524-4.67861 19.32848-4.75658l.12671.12671c6.93018-.08773 12.27159 2.75843 16.02422 8.5287 3.4992 5.29267 5.25368 12.07665 5.25368 20.37142z"/><path d="m249.30487 83.265743c0 9.92254-.9942 16.794237-2.9826 20.615097-1.99816 3.82086-5.79952 6.8717-11.41385 9.14277-4.55189 1.79346-9.47417 2.76817-14.75709 2.93387l-1.47181-5.61432c5.37064-.73103 9.15252-1.46207 11.34561-2.1931 4.31796-1.46206 7.28108-3.70389 8.90884-6.706 1.30611-2.446517 1.94942-7.115367 1.94942-14.026057v-2.3198c-6.09193 2.76817-12.47628 4.14251-19.15303 4.14251-4.38619 0-8.25579-1.37434-11.58929-4.14251-3.74289-3.01186-5.61433-6.83272-5.61433-11.46258v-37.07793l8.90884-3.05084v37.3216c0 3.98656 1.28662 7.0569 3.85985 9.21101 2.57323 2.1541 5.90674 3.18729 9.99077 3.10932 4.08403-.08773 8.46047-1.66676 13.10983-4.75658v-43.54025h8.90884z"/><path d="m284.08249 88.997033c-1.06243.08772-2.03714.12671-2.93387.12671-5.03925 0-8.96733-1.19889-11.77449-3.60642-2.79742-2.40753-4.20099-5.73129-4.20099-9.97127v-35.08953h-6.10168v-5.60457h6.10168v-14.88381l8.89909-3.16781v18.05162h10.01026v5.60457h-10.01026v34.84585c0 3.34325.89673 5.71179 2.6902 7.09588 1.54004 1.14041 3.98656 1.79347 7.32006 1.95917z"/><path d="m338.02288 88.266003h-8.90884v-34.38773c0-3.49921-.81876-6.51106-2.44651-9.02581-1.88119-2.84615-4.49342-4.26923-7.84641-4.26923-4.08404 0-9.19152 2.15411-15.32242 6.46233v41.22044h-8.90885v-82.1972101l8.90885-2.80716v37.4385701c5.6923-4.14251 11.91093-6.21864 18.66566-6.21864 4.7176 0 8.53846 1.58877 11.46258 4.75658 2.93388 3.1678 4.39594 7.11537 4.39594 11.83296z"/><path d="m385.37424 60.525783c0-5.59483-1.06242-10.21495-3.17755-13.87011-2.51474-4.45442-6.42332-6.80347-11.70625-7.04715-9.76658.56534-14.64012 7.56375-14.64012 20.97574 0 6.15042 1.01369 11.28713 3.06057 15.41015 2.61223 5.25368 6.53056 7.84641 11.755 7.75869 9.80557-.07798 14.70835-7.81717 14.70835-23.22732zm9.75685.05848c0 7.96338-2.03714 14.5914-6.10168 19.88407-4.47391 5.92623-10.65357 8.89909-18.53897 8.89909-7.81716 0-13.90909-2.97286-18.30503-8.89909-3.98656-5.29267-5.97497-11.92069-5.97497-19.88407 0-7.48576 2.15411-13.78238 6.46232-18.90935 4.5519-5.43888 10.53661-8.16806 17.93464-8.16806 7.39805 0 13.42174 2.72918 18.06137 8.16806 4.3082 5.12697 6.46232 11.42359 6.46232 18.90935z"/><path d="m446.20583 88.266003h-8.90884v-36.33715c0-3.98656-1.19889-7.09588-3.59667-9.33772-2.39779-2.23208-5.59483-3.31401-9.58139-3.22628-4.23023.07798-8.25579 1.46206-12.07664 4.14251v44.75864h-8.90884v-45.86006c5.12697-3.73313 9.84456-6.16991 14.15276-7.31032 4.06455-1.06243 7.65148-1.58877 10.74131-1.58877 2.11512 0 4.10352.20469 5.97496.61406 3.49921.80901 6.34535 2.31006 8.53845 4.51291 2.44651 2.43677 3.6649 5.3609 3.6649 8.78212z"/></g><path d="m60.510156 6.3979729c-4.583653.0212983-8.960939.4122177-12.8125 1.09375-11.346216 2.0045038-13.406249 6.2001021-13.40625 13.9375001v10.21875h26.8125v3.40625h-26.8125-10.0625c-7.792459 0-14.6157592 4.683717-16.7500002 13.59375-2.46182 10.212966-2.5710151 16.586023 0 27.25 1.9059283 7.937852 6.4575432 13.593748 14.2500002 13.59375h9.21875v-12.25c0-8.849902 7.657144-16.656248 16.75-16.65625h26.78125c7.454951 0 13.406253-6.138164 13.40625-13.625v-25.53125c0-7.266339-6.12998-12.7247775-13.40625-13.9375001-4.605987-.7667253-9.385097-1.1150483-13.96875-1.09375zm-14.5 8.2187501c2.769547 0 5.03125 2.298646 5.03125 5.125-.000002 2.816336-2.261703 5.09375-5.03125 5.09375-2.779476-.000001-5.03125-2.277415-5.03125-5.09375-.000001-2.826353 2.251774-5.125 5.03125-5.125z" fill="url(#b)"/><path d="m91.228906 35.054223v11.90625c0 9.230755-7.825895 16.999999-16.75 17h-26.78125c-7.335833 0-13.406249 6.278483-13.40625 13.625v25.531247c0 7.26634 6.318588 11.54032 13.40625 13.625 8.487331 2.49561 16.626237 2.94663 26.78125 0 6.750155-1.95439 13.406253-5.88761 13.40625-13.625v-10.218747h-26.78125v-3.40625h26.78125 13.406254c7.79246 0 10.69625-5.435408 13.40624-13.59375 2.79933-8.398886 2.68022-16.475776 0-27.25-1.92578-7.757441-5.60387-13.59375-13.40624-13.59375zm-15.0625 64.65625c2.779478.000003 5.03125 2.277417 5.03125 5.093747-.000002 2.82635-2.251775 5.125-5.03125 5.125-2.76955 0-5.03125-2.29865-5.03125-5.125.000002-2.81633 2.261697-5.093747 5.03125-5.093747z" fill="url(#a)"/><path d="m463.5544 26.909383h1.56195v-9.79624h3.70013v-1.16766h-8.96221v1.16766h3.70013zm6.64702 0h1.33447v-8.94703l2.89641 8.945906h1.48569l3.01816-8.915576v8.9167h1.45579v-10.9639h-1.92589l-3.29831 9.392857-2.81297-9.392857h-2.15335z" fill="#646464"/><path d="m110.46717 132.28575a48.948284 8.6066771 0 1 1 -97.896571 0 48.948284 8.6066771 0 1 1 97.896571 0z" fill="url(#c)" opacity=".44382" transform="matrix(.73406 0 0 .809524 16.24958 27.00935)"/></svg>

<svg xmlns:dc="http://purl.org/dc/elements/1.1/" xmlns:cc="http://web.resource.org/cc/" xmlns:rdf="http://www.w3.org/1999/02/22-rdf-syntax-ns#" xmlns:svg="http://www.w3.org/2000/svg" xmlns="http://www.w3.org/2000/svg" xmlns:xlink="http://www.w3.org/1999/xlink" version="1" id="svg2" width="518.453" height="153.36"><metadata id="metadata371"><rdf:RDF><cc:Work><dc:format>image/svg+xml</dc:format><dc:type rdf:resource="http://purl.org/dc/dcmitype/StillImage"/></cc:Work></rdf:RDF></metadata><defs id="defs4"><linearGradient id="linearGradient2795"><stop offset="0" id="stop2797" stop-color="#b8b8b8" stop-opacity="0.49803922"/><stop offset="1" id="stop2799" stop-color="#7f7f7f" stop-opacity="0"/></linearGradient><linearGradient id="linearGradient2787"><stop offset="0" id="stop2789" stop-color="#7f7f7f" stop-opacity="0.5"/><stop offset="1" id="stop2791" stop-color="#7f7f7f" stop-opacity="0"/></linearGradient><linearGradient id="linearGradient3676"><stop offset="0" id="stop3678" stop-color="#b2b2b2" stop-opacity="0.5"/><stop offset="1" id="stop3680" stop-color="#b3b3b3" stop-opacity="0"/></linearGradient><linearGradient id="linearGradient3236"><stop offset="0" id="stop3244" stop-color="#f4f4f4" stop-opacity="1"/><stop offset="1" id="stop3240" stop-color="white" stop-opacity="1"/></linearGradient><linearGradient id="linearGradient4671"><stop offset="0" id="stop4673" stop-color="#ffd43b" stop-opacity="1"/><stop offset="1" id="stop4675" stop-color="#ffe873" stop-opacity="1"/></linearGradient><linearGradient id="linearGradient4689"><stop offset="0" id="stop4691" stop-color="#5a9fd4" stop-opacity="1"/><stop offset="1" id="stop4693" stop-color="#306998" stop-opacity="1"/></linearGradient><linearGradient x1="224.24" y1="144.757" x2="-65.309" y2="144.757" id="linearGradient2987" xlink:href="#linearGradient4671" gradientUnits="userSpaceOnUse" gradientTransform="translate(100.2702,99.61116)"/><linearGradient x1="172.942" y1="77.476" x2="26.67" y2="76.313" id="linearGradient2990" xlink:href="#linearGradient4689" gradientUnits="userSpaceOnUse" gradientTransform="translate(100.2702,99.61116)"/><linearGradient xlink:href="#linearGradient4689" id="linearGradient2587" gradientUnits="userSpaceOnUse" gradientTransform="translate(100.2702,99.61116)" x1="172.942" y1="77.476" x2="26.67" y2="76.313"/><linearGradient xlink:href="#linearGradient4671" id="linearGradient2589" gradientUnits="userSpaceOnUse" gradientTransform="translate(100.2702,99.61116)" x1="224.24" y1="144.757" x2="-65.309" y2="144.757"/><linearGradient xlink:href="#linearGradient4689" id="linearGradient2248" gradientUnits="userSpaceOnUse" gradientTransform="translate(100.2702,99.61116)" x1="172.942" y1="77.476" x2="26.67" y2="76.313"/><linearGradient xlink:href="#linearGradient4671" id="linearGradient2250" gradientUnits="userSpaceOnUse" gradientTransform="translate(100.2702,99.61116)" x1="224.24" y1="144.757" x2="-65.309" y2="144.757"/><linearGradient xlink:href="#linearGradient4671" id="linearGradient2255" gradientUnits="userSpaceOnUse" gradientTransform="matrix(0.562541,0,0,0.567972,-11.5974,-7.60954)" x1="224.24" y1="144.757" x2="-65.309" y2="144.757"/><linearGradient xlink:href="#linearGradient4689" id="linearGradient2258" gradientUnits="userSpaceOnUse" gradientTransform="matrix(0.562541,0,0,0.567972,-11.5974,-7.60954)" x1="172.942" y1="76.176" x2="26.67" y2="76.313"/><radialGradient xlink:href="#linearGradient2795" id="radialGradient2801" cx="61.519" cy="132.286" fx="61.519" fy="132.286" r="29.037" gradientTransform="matrix(1,0,0,0.177966,0,108.7434)" gradientUnits="userSpaceOnUse"/><linearGradient xlink:href="#linearGradient4671" id="linearGradient1475" gradientUnits="userSpaceOnUse" gradientTransform="matrix(0.562541,0,0,0.567972,-9.399749,-5.305317)" x1="150.961" y1="192.352" x2="112.031" y2="137.273"/><linearGradient xlink:href="#linearGradient4689" id="linearGradient1478" gradientUnits="userSpaceOnUse" gradientTransform="matrix(0.562541,0,0,0.567972,-9.399749,-5.305317)" x1="26.649" y1="20.604" x2="135.665" y2="114.398"/><radialGradient xlink:href="#linearGradient2795" id="radialGradient1480" gradientUnits="userSpaceOnUse" gradientTransform="matrix(2.382716e-8,-0.296405,1.43676,4.683673e-7,-128.544,150.5202)" cx="61.519" cy="132.286" fx="61.519" fy="132.286" r="29.037"/></defs><path id="path46" d="M 184.61344,61.929363 C 184.61344,47.367213 180.46118,39.891193 172.15666,39.481813 C 168.85239,39.325863 165.62611,39.852203 162.48754,41.070593 C 159.98254,41.967323 158.2963,42.854313 157.40931,43.751043 L 157.40931,78.509163 C 162.72147,81.842673 167.43907,83.392453 171.55234,83.148783 C 180.25649,82.573703 184.61344,75.507063 184.61344,61.929363 z M 194.85763,62.533683 C 194.85763,69.931723 193.12265,76.072393 189.63319,80.955683 C 185.7441,86.482283 180.35396,89.328433 173.46277,89.484393 C 168.26757,89.650093 162.91642,88.022323 157.40931,84.610843 L 157.40931,116.20116 L 148.50047,113.02361 L 148.50047,42.903043 C 149.96253,41.109583 151.84372,39.569543 154.12454,38.263433 C 159.42696,35.173603 165.86978,33.584823 173.45302,33.506853 L 173.57973,33.633563 C 180.50991,33.545833 185.85132,36.391993 189.60395,42.162263 C 193.10315,47.454933 194.85763,54.238913 194.85763,62.533683 z" fill="#646464" fill-opacity="1"/><path id="path48" d="M 249.30487,83.265743 C 249.30487,93.188283 248.31067,100.05998 246.32227,103.88084 C 244.32411,107.7017 240.52275,110.75254 234.90842,113.02361 C 230.35653,114.81707 225.43425,115.79178 220.15133,115.95748 L 218.67952,110.34316 C 224.05016,109.61213 227.83204,108.88109 230.02513,108.15006 C 234.34309,106.688 237.30621,104.44617 238.93397,101.44406 C 240.24008,98.997543 240.88339,94.328693 240.88339,87.418003 L 240.88339,85.098203 C 234.79146,87.866373 228.40711,89.240713 221.73036,89.240713 C 217.34417,89.240713 213.47457,87.866373 210.14107,85.098203 C 206.39818,82.086343 204.52674,78.265483 204.52674,73.635623 L 204.52674,36.557693 L 213.43558,33.506853 L 213.43558,70.828453 C 213.43558,74.815013 214.7222,77.885353 217.29543,80.039463 C 219.86866,82.193563 223.20217,83.226753 227.2862,83.148783 C 231.37023,83.061053 235.74667,81.482023 240.39603,78.392203 L 240.39603,34.851953 L 249.30487,34.851953 L 249.30487,83.265743 z" fill="#646464" fill-opacity="1"/><path id="path50" d="M 284.08249,88.997033 C 283.02006,89.084753 282.04535,89.123743 281.14862,89.123743 C 276.10937,89.123743 272.18129,87.924853 269.37413,85.517323 C 266.57671,83.109793 265.17314,79.786033 265.17314,75.546053 L 265.17314,40.456523 L 259.07146,40.456523 L 259.07146,34.851953 L 265.17314,34.851953 L 265.17314,19.968143 L 274.07223,16.800333 L 274.07223,34.851953 L 284.08249,34.851953 L 284.08249,40.456523 L 274.07223,40.456523 L 274.07223,75.302373 C 274.07223,78.645623 274.96896,81.014163 276.76243,82.398253 C 278.30247,83.538663 280.74899,84.191723 284.08249,84.357423 L 284.08249,88.997033 z" fill="#646464" fill-opacity="1"/><path id="path52" d="M 338.02288,88.266003 L 329.11404,88.266003 L 329.11404,53.878273 C 329.11404,50.379063 328.29528,47.367213 326.66753,44.852463 C 324.78634,42.006313 322.17411,40.583233 318.82112,40.583233 C 314.73708,40.583233 309.6296,42.737343 303.4987,47.045563 L 303.4987,88.266003 L 294.58985,88.266003 L 294.58985,6.0687929 L 303.4987,3.2616329 L 303.4987,40.700203 C 309.191,36.557693 315.40963,34.481563 322.16436,34.481563 C 326.88196,34.481563 330.70282,36.070333 333.62694,39.238143 C 336.56082,42.405943 338.02288,46.353513 338.02288,51.071103 L 338.02288,88.266003 L 338.02288,88.266003 z" fill="#646464" fill-opacity="1"/><path id="path54" d="M 385.37424,60.525783 C 385.37424,54.930953 384.31182,50.310833 382.19669,46.655673 C 379.68195,42.201253 375.77337,39.852203 370.49044,39.608523 C 360.72386,40.173863 355.85032,47.172273 355.85032,60.584263 C 355.85032,66.734683 356.86401,71.871393 358.91089,75.994413 C 361.52312,81.248093 365.44145,83.840823 370.66589,83.753103 C 380.47146,83.675123 385.37424,75.935933 385.37424,60.525783 z M 395.13109,60.584263 C 395.13109,68.547643 393.09395,75.175663 389.02941,80.468333 C 384.5555,86.394563 378.37584,89.367423 370.49044,89.367423 C 362.67328,89.367423 356.58135,86.394563 352.18541,80.468333 C 348.19885,75.175663 346.21044,68.547643 346.21044,60.584263 C 346.21044,53.098503 348.36455,46.801883 352.67276,41.674913 C 357.22466,36.236033 363.20937,33.506853 370.6074,33.506853 C 378.00545,33.506853 384.02914,36.236033 388.66877,41.674913 C 392.97697,46.801883 395.13109,53.098503 395.13109,60.584263 z" fill="#646464" fill-opacity="1"/><path id="path56" d="M 446.20583,88.266003 L 437.29699,88.266003 L 437.29699,51.928853 C 437.29699,47.942293 436.0981,44.832973 433.70032,42.591133 C 431.30253,40.359053 428.10549,39.277123 424.11893,39.364853 C 419.8887,39.442833 415.86314,40.826913 412.04229,43.507363 L 412.04229,88.266003 L 403.13345,88.266003 L 403.13345,42.405943 C 408.26042,38.672813 412.97801,36.236033 417.28621,35.095623 C 421.35076,34.033193 424.93769,33.506853 428.02752,33.506853 C 430.14264,33.506853 432.13104,33.711543 434.00248,34.120913 C 437.50169,34.929923 440.34783,36.430973 442.54093,38.633823 C 444.98744,41.070593 446.20583,43.994723 446.20583,47.415943 L 446.20583,88.266003 z" fill="#646464" fill-opacity="1"/><path d="M 60.510156,6.3979729 C 55.926503,6.4192712 51.549217,6.8101906 47.697656,7.4917229 C 36.35144,9.4962267 34.291407,13.691825 34.291406,21.429223 L 34.291406,31.647973 L 61.103906,31.647973 L 61.103906,35.054223 L 34.291406,35.054223 L 24.228906,35.054223 C 16.436447,35.054223 9.6131468,39.73794 7.4789058,48.647973 C 5.0170858,58.860939 4.9078907,65.233996 7.4789058,75.897973 C 9.3848341,83.835825 13.936449,89.491721 21.728906,89.491723 L 30.947656,89.491723 L 30.947656,77.241723 C 30.947656,68.391821 38.6048,60.585475 47.697656,60.585473 L 74.478906,60.585473 C 81.933857,60.585473 87.885159,54.447309 87.885156,46.960473 L 87.885156,21.429223 C 87.885156,14.162884 81.755176,8.7044455 74.478906,7.4917229 C 69.872919,6.7249976 65.093809,6.3766746 60.510156,6.3979729 z M 46.010156,14.616723 C 48.779703,14.616723 51.041406,16.915369 51.041406,19.741723 C 51.041404,22.558059 48.779703,24.835473 46.010156,24.835473 C 43.23068,24.835472 40.978906,22.558058 40.978906,19.741723 C 40.978905,16.91537 43.23068,14.616723 46.010156,14.616723 z" id="path1948" fill="url(#linearGradient1478)" fill-opacity="1"/><path d="M 91.228906,35.054223 L 91.228906,46.960473 C 91.228906,56.191228 83.403011,63.960472 74.478906,63.960473 L 47.697656,63.960473 C 40.361823,63.960473 34.291407,70.238956 34.291406,77.585473 L 34.291406,103.11672 C 34.291406,110.38306 40.609994,114.65704 47.697656,116.74172 C 56.184987,119.23733 64.323893,119.68835 74.478906,116.74172 C 81.229061,114.78733 87.885159,110.85411 87.885156,103.11672 L 87.885156,92.897973 L 61.103906,92.897973 L 61.103906,89.491723 L 87.885156,89.491723 L 101.29141,89.491723 C 109.08387,89.491723 111.98766,84.056315 114.69765,75.897973 C 117.49698,67.499087 117.37787,59.422197 114.69765,48.647973 C 112.77187,40.890532 109.09378,35.054223 101.29141,35.054223 L 91.228906,35.054223 z M 76.166406,99.710473 C 78.945884,99.710476 81.197656,101.98789 81.197656,104.80422 C 81.197654,107.63057 78.945881,109.92922 76.166406,109.92922 C 73.396856,109.92922 71.135156,107.63057 71.135156,104.80422 C 71.135158,101.98789 73.396853,99.710473 76.166406,99.710473 z" id="path1950" fill="url(#linearGradient1475)" fill-opacity="1"/><path d="M 463.5544,26.909383 L 465.11635,26.909383 L 465.11635,17.113143 L 468.81648,17.113143 L 468.81648,15.945483 L 459.85427,15.945483 L 459.85427,17.113143 L 463.5544,17.113143 L 463.5544,26.909383 M 470.20142,26.909383 L 471.53589,26.909383 L 471.53589,17.962353 L 474.4323,26.908259 L 475.91799,26.908259 L 478.93615,17.992683 L 478.93615,26.909383 L 480.39194,26.909383 L 480.39194,15.945483 L 478.46605,15.945483 L 475.16774,25.33834 L 472.35477,15.945483 L 470.20142,15.945483 L 470.20142,26.909383" style="line-height:125%" id="text3004" font-size="15.16445827px" font-style="normal" font-weight="normal" fill="#646464" fill-opacity="1" stroke="none" stroke-width="1px" stroke-linecap="butt" stroke-linejoin="miter" stroke-opacity="1" font-family="Bitstream Vera Sans"/><path id="path1894" d="M 110.46717 132.28575 A 48.948284 8.6066771 0 1 1 12.570599,132.28575 A 48.948284 8.6066771 0 1 1 110.46717 132.28575 z" transform="matrix(0.73406,0,0,0.809524,16.24958,27.00935)" opacity="0.44382022" fill="url(#radialGradient1480)" fill-opacity="1" fill-rule="nonzero" stroke="none" stroke-width="20" stroke-miterlimit="4" stroke-dasharray="none" stroke-opacity="1"/></svg>
